X: 1824
T: Ardgroom, The
R: polka
M: 2/4
K: Gmajor
|:GD B/d/B/A/|GB d2|de dG|BA AB/A/|
GD B/d/B/A/|GB d2|de dG|1 AG GB/A/:|2 AG G2||
|:df g/a/g/f/|ed d2|de dB|GA B/d/B/A/|
Gf gf|ed d2|de dG|1 AG G2:|2 AG GB/A/||

